logos/FullHorizontal-Light-RedAccent-DarkBG.svg

<?xml version="1.0" encoding="UTF-8" standalone="no"?>
<svg
   width="100%"
   height="100%"
   viewBox="0 0 1400 400"
   version="1.1"
   xml:space="preserve"
   style="fill-rule:evenodd;clip-rule:evenodd;stroke-linejoin:round;stroke-miterlimit:2;"
   id="svg1987"
   xmlns="http://www.w3.org/2000/svg"
   xmlns:svg="http://www.w3.org/2000/svg"><defs
   id="defs1991">
        
    
            
            
        
                
            
                    
                    
                
                        
                        
                    
                        
                        
                        
                    </defs>
    <g
   id="g2253"><rect
     x="0"
     y="-0.0012254165"
     width="1400.0078"
     height="399.99896"
     style="fill:#070516;stroke-width:1.17377"
     id="rect1924" /><g
     transform="matrix(0.85018811,-0.14988866,0,0.83505337,-19425.256,55.763711)"
     id="g1928">
                            <path
   d="m 23021.3,4358.98 c 0,-4.38 -3.4,-7.94 -7.6,-7.94 h -50.2 c -4.2,0 -7.6,3.56 -7.6,7.94 v 96.65 c 0,4.39 3.4,7.95 7.6,7.95 h 50.2 c 4.2,0 7.6,-3.56 7.6,-7.95 z"
   style="fill:#ffffff"
   id="path1926" />
                        </g><g
     transform="matrix(0.85018811,-0.14988866,0,0.83505337,-19314.082,-124.9551)"
     id="g1932"
     style="fill:#ff5d51;fill-opacity:1">
                            <path
   d="m 23021.3,4358.98 c 0,-4.38 -3.4,-7.94 -7.6,-7.94 h -50.2 c -4.2,0 -7.6,3.56 -7.6,7.94 v 96.65 c 0,4.39 3.4,7.95 7.6,7.95 h 50.2 c 4.2,0 7.6,-3.56 7.6,-7.95 z"
   style="fill:#ff5d51;fill-opacity:1"
   id="path1930" />
                        </g><g
     transform="matrix(0.91091483,-0.16059492,0.95283787,2.0985808,-24965.149,-5357.2419)"
     id="g1936">
                            <path
   d="m 23021.3,4354.17 c 0,-1.73 -3.4,-3.13 -7.6,-3.13 h -50.2 c -4.2,0 -7.6,1.4 -7.6,3.13 v 106.27 c 0,1.73 3.4,3.14 7.6,3.14 h 50.2 c 4.2,0 7.6,-1.41 7.6,-3.14 z"
   style="fill:#ffffff"
   id="path1934" />
                        </g><g
     transform="matrix(0.82034961,0,0,0.51091172,-20593.679,-3629.3221)"
     id="g1972">
                            <g
   transform="matrix(249.121,0,0,400,25528.9,7633.96)"
   id="g1942">
                                <path
   d="m 0.033,-0.279 c 0,0.173 0.112,0.288 0.252,0.288 0.088,0 0.151,-0.042 0.184,-0.09 V 0 H 0.61 V -0.554 H 0.469 v 0.079 C 0.436,-0.521 0.375,-0.563 0.286,-0.563 c -0.141,0 -0.253,0.111 -0.253,0.284 z m 0.436,0.002 c 0,0.105 -0.07,0.163 -0.147,0.163 -0.075,0 -0.146,-0.06 -0.146,-0.165 0,-0.105 0.071,-0.161 0.146,-0.161 0.077,0 0.147,0.058 0.147,0.163 z"
   style="fill:#ffffff;fill-rule:nonzero"
   id="path1940" />
                            </g>
                            <g
   transform="matrix(249.121,0,0,400,25692.8,7633.96)"
   id="g1946">
                                <rect
   x="0.068999998"
   y="-0.74000001"
   width="0.14"
   height="0.74000001"
   style="fill:#ffffff;fill-rule:nonzero"
   id="rect1944" />
                            </g>
                            <g
   transform="matrix(249.121,0,0,400,25757.1,7633.96)"
   id="g1950">
                                <path
   d="m 0.307,-0.448 c 0.072,0 0.13,0.046 0.132,0.119 H 0.176 C 0.187,-0.405 0.24,-0.448 0.307,-0.448 Z M 0.57,-0.174 H 0.419 c -0.018,0.037 -0.051,0.067 -0.111,0.067 -0.07,0 -0.126,-0.046 -0.133,-0.128 H 0.58 c 0.003,-0.018 0.004,-0.036 0.004,-0.054 0,-0.165 -0.113,-0.274 -0.273,-0.274 -0.164,0 -0.278,0.111 -0.278,0.286 0,0.174 0.117,0.286 0.278,0.286 0.137,0 0.229,-0.081 0.259,-0.183 z"
   style="fill:#ffffff;fill-rule:nonzero"
   id="path1948" />
                            </g>
                            <g
   transform="matrix(249.121,0,0,400,25905.8,7633.96)"
   id="g1954">
                                <path
   d="m 0.209,-0.474 v -0.08 h -0.14 v 0.818 h 0.14 v -0.343 c 0.034,0.045 0.096,0.088 0.183,0.088 0.142,0 0.253,-0.115 0.253,-0.288 0,-0.173 -0.111,-0.284 -0.253,-0.284 -0.086,0 -0.15,0.042 -0.183,0.089 z m 0.293,0.195 c 0,0.105 -0.071,0.165 -0.147,0.165 -0.075,0 -0.146,-0.058 -0.146,-0.163 0,-0.105 0.071,-0.163 0.146,-0.163 0.076,0 0.147,0.056 0.147,0.161 z"
   style="fill:#ffffff;fill-rule:nonzero"
   id="path1952" />
                            </g>
                            <g
   transform="matrix(249.121,0,0,400,26069.8,7633.96)"
   id="g1958">
                                <path
   d="m 0.069,0 h 0.14 v -0.306 c 0,-0.089 0.049,-0.137 0.125,-0.137 0.074,0 0.123,0.048 0.123,0.137 V 0 h 0.14 v -0.325 c 0,-0.153 -0.091,-0.237 -0.216,-0.237 -0.074,0 -0.136,0.03 -0.172,0.077 V -0.74 h -0.14 z"
   style="fill:#ffffff;fill-rule:nonzero"
   id="path1956" />
                            </g>
                            <g
   transform="matrix(249.121,0,0,400,26229.5,7633.96)"
   id="g1962">
                                <rect
   x="0.068999998"
   y="-0.55400002"
   width="0.14"
   height="0.55400002"
   style="fill:#ffffff;fill-rule:nonzero"
   id="rect1960" />
                            </g>
                            <g
   transform="matrix(249.121,0,0,400,26293.7,7633.96)"
   id="g1966">
                                <path
   d="M 0.592,-0.554 H 0.451 v 0.305 c 0,0.089 -0.048,0.137 -0.124,0.137 -0.074,0 -0.123,-0.048 -0.123,-0.137 v -0.305 h -0.14 v 0.325 c 0,0.152 0.093,0.236 0.222,0.236 0.069,0 0.13,-0.03 0.165,-0.077 V 0 h 0.141 z"
   style="fill:#ffffff;fill-rule:nonzero"
   id="path1964" />
                            </g>
                            <g
   transform="matrix(249.121,0,0,400,26453.4,7633.96)"
   id="g1970">
                                <path
   d="m 0.844,0 h 0.14 v -0.325 c 0,-0.153 -0.094,-0.237 -0.227,-0.237 -0.081,0 -0.154,0.043 -0.19,0.106 -0.038,-0.069 -0.109,-0.106 -0.195,-0.106 -0.069,0 -0.128,0.029 -0.163,0.075 V -0.554 H 0.069 V 0 h 0.14 v -0.306 c 0,-0.088 0.049,-0.134 0.125,-0.134 0.074,0 0.123,0.046 0.123,0.134 V 0 h 0.14 v -0.306 c 0,-0.088 0.049,-0.134 0.124,-0.134 0.074,0 0.123,0.046 0.123,0.134 z"
   style="fill:#ffffff;fill-rule:nonzero"
   id="path1968" />
                            </g>
                        </g><g
     transform="matrix(0.44458489,-0.07839174,0,0.30660017,-9268.2203,576.86084)"
     id="g1976">
                            <path
   d="m 23021.3,4364.73 c 0,-7.56 -4.1,-13.69 -9.1,-13.69 h -47.1 c -5.1,0 -9.2,6.13 -9.2,13.69 v 85.16 c 0,7.55 4.1,13.69 9.2,13.69 h 47.1 c 5,0 9.1,-6.14 9.1,-13.69 z"
   style="fill:#ffffff"
   id="path1974" />
                        </g></g>
</svg>

<?xml version="1.0" encoding="UTF-8" standalone="no"?>
<!DOCTYPE svg PUBLIC "-//W3C//DTD SVG 1.1//EN" "http://www.w3.org/Graphics/SVG/1.1/DTD/svg11.dtd">
<svg width="100%" height="100%" viewBox="0 0 1400 400" version="1.1" xmlns="http://www.w3.org/2000/svg" xmlns:xlink="http://www.w3.org/1999/xlink" xml:space="preserve" xmlns:serif="http://www.serif.com/" style="fill-rule:evenodd;clip-rule:evenodd;stroke-linejoin:round;stroke-miterlimit:2;">
    <g transform="matrix(1,0,0,1,-1600,-3289)">
        <g id="FullHorizontal-__Light--RedAccent--DarkBG-__1400x400" serif:id="FullHorizontal __Light--RedAccent--DarkBG __1400x400" transform="matrix(1.28361,0,0,1.07333,1600,3790.67)">
            <rect x="0" y="-467.397" width="1090.68" height="372.671" style="fill:rgb(7,5,22);"/>
            <g transform="matrix(0.536544,0,0,0.641657,37.1014,-88.7153)">
                <g>
                    <g transform="matrix(6.75975,0,0,6.75975,-2252.77,-911.942)">
                        <g transform="matrix(0.182619,-0.032196,-1.43736e-34,0.179369,-3849.48,59.5806)">
                            <path d="M23021.3,4358.98C23021.3,4354.6 23017.9,4351.04 23013.7,4351.04L22963.5,4351.04C22959.3,4351.04 22955.9,4354.6 22955.9,4358.98L22955.9,4455.63C22955.9,4460.02 22959.3,4463.58 22963.5,4463.58L23013.7,4463.58C23017.9,4463.58 23021.3,4460.02 23021.3,4455.63L23021.3,4358.98Z" style="fill:white;"/>
                        </g>
                        <g transform="matrix(0.182619,-0.032196,-1.43736e-34,0.179369,-3825.6,20.7623)">
                            <path d="M23021.3,4358.98C23021.3,4354.6 23017.9,4351.04 23013.7,4351.04L22963.5,4351.04C22959.3,4351.04 22955.9,4354.6 22955.9,4358.98L22955.9,4455.63C22955.9,4460.02 22959.3,4463.58 22963.5,4463.58L23013.7,4463.58C23017.9,4463.58 23021.3,4460.02 23021.3,4455.63L23021.3,4358.98Z" style="fill:rgb(255,77,68);"/>
                        </g>
                        <g transform="matrix(0.195663,-0.0344957,0.204668,0.450774,-5039.44,-1103.13)">
                            <path d="M23021.3,4354.17C23021.3,4352.44 23017.9,4351.04 23013.7,4351.04L22963.5,4351.04C22959.3,4351.04 22955.9,4352.44 22955.9,4354.17L22955.9,4460.44C22955.9,4462.17 22959.3,4463.58 22963.5,4463.58L23013.7,4463.58C23017.9,4463.58 23021.3,4462.17 23021.3,4460.44L23021.3,4354.17Z" style="fill:white;"/>
                        </g>
                    </g>
                    <g transform="matrix(0.741839,0,0,0.741839,-33288,-19767.9)">
                        <g transform="matrix(1.60565,0,0,1,4471.56,18748)">
                            <g transform="matrix(249.121,0,0,400,25528.9,7633.96)">
                                <path d="M0.033,-0.279C0.033,-0.106 0.145,0.009 0.285,0.009C0.373,0.009 0.436,-0.033 0.469,-0.081L0.469,0L0.61,0L0.61,-0.554L0.469,-0.554L0.469,-0.475C0.436,-0.521 0.375,-0.563 0.286,-0.563C0.145,-0.563 0.033,-0.452 0.033,-0.279ZM0.469,-0.277C0.469,-0.172 0.399,-0.114 0.322,-0.114C0.247,-0.114 0.176,-0.174 0.176,-0.279C0.176,-0.384 0.247,-0.44 0.322,-0.44C0.399,-0.44 0.469,-0.382 0.469,-0.277Z" style="fill:white;fill-rule:nonzero;"/>
                            </g>
                            <g transform="matrix(249.121,0,0,400,25692.8,7633.96)">
                                <rect x="0.069" y="-0.74" width="0.14" height="0.74" style="fill:white;fill-rule:nonzero;"/>
                            </g>
                            <g transform="matrix(249.121,0,0,400,25757.1,7633.96)">
                                <path d="M0.307,-0.448C0.379,-0.448 0.437,-0.402 0.439,-0.329L0.176,-0.329C0.187,-0.405 0.24,-0.448 0.307,-0.448ZM0.57,-0.174L0.419,-0.174C0.401,-0.137 0.368,-0.107 0.308,-0.107C0.238,-0.107 0.182,-0.153 0.175,-0.235L0.58,-0.235C0.583,-0.253 0.584,-0.271 0.584,-0.289C0.584,-0.454 0.471,-0.563 0.311,-0.563C0.147,-0.563 0.033,-0.452 0.033,-0.277C0.033,-0.103 0.15,0.009 0.311,0.009C0.448,0.009 0.54,-0.072 0.57,-0.174Z" style="fill:white;fill-rule:nonzero;"/>
                            </g>
                            <g transform="matrix(249.121,0,0,400,25905.8,7633.96)">
                                <path d="M0.209,-0.474L0.209,-0.554L0.069,-0.554L0.069,0.264L0.209,0.264L0.209,-0.079C0.243,-0.034 0.305,0.009 0.392,0.009C0.534,0.009 0.645,-0.106 0.645,-0.279C0.645,-0.452 0.534,-0.563 0.392,-0.563C0.306,-0.563 0.242,-0.521 0.209,-0.474ZM0.502,-0.279C0.502,-0.174 0.431,-0.114 0.355,-0.114C0.28,-0.114 0.209,-0.172 0.209,-0.277C0.209,-0.382 0.28,-0.44 0.355,-0.44C0.431,-0.44 0.502,-0.384 0.502,-0.279Z" style="fill:white;fill-rule:nonzero;"/>
                            </g>
                            <g transform="matrix(249.121,0,0,400,26069.8,7633.96)">
                                <path d="M0.069,0L0.209,0L0.209,-0.306C0.209,-0.395 0.258,-0.443 0.334,-0.443C0.408,-0.443 0.457,-0.395 0.457,-0.306L0.457,0L0.597,0L0.597,-0.325C0.597,-0.478 0.506,-0.562 0.381,-0.562C0.307,-0.562 0.245,-0.532 0.209,-0.485L0.209,-0.74L0.069,-0.74L0.069,0Z" style="fill:white;fill-rule:nonzero;"/>
                            </g>
                            <g transform="matrix(249.121,0,0,400,26229.5,7633.96)">
                                <rect x="0.069" y="-0.554" width="0.14" height="0.554" style="fill:white;fill-rule:nonzero;"/>
                            </g>
                            <g transform="matrix(249.121,0,0,400,26293.7,7633.96)">
                                <path d="M0.592,-0.554L0.451,-0.554L0.451,-0.249C0.451,-0.16 0.403,-0.112 0.327,-0.112C0.253,-0.112 0.204,-0.16 0.204,-0.249L0.204,-0.554L0.064,-0.554L0.064,-0.229C0.064,-0.077 0.157,0.007 0.286,0.007C0.355,0.007 0.416,-0.023 0.451,-0.07L0.451,0L0.592,0L0.592,-0.554Z" style="fill:white;fill-rule:nonzero;"/>
                            </g>
                            <g transform="matrix(249.121,0,0,400,26453.4,7633.96)">
                                <path d="M0.844,0L0.984,0L0.984,-0.325C0.984,-0.478 0.89,-0.562 0.757,-0.562C0.676,-0.562 0.603,-0.519 0.567,-0.456C0.529,-0.525 0.458,-0.562 0.372,-0.562C0.303,-0.562 0.244,-0.533 0.209,-0.487L0.209,-0.554L0.069,-0.554L0.069,0L0.209,0L0.209,-0.306C0.209,-0.394 0.258,-0.44 0.334,-0.44C0.408,-0.44 0.457,-0.394 0.457,-0.306L0.457,0L0.597,0L0.597,-0.306C0.597,-0.394 0.646,-0.44 0.721,-0.44C0.795,-0.44 0.844,-0.394 0.844,-0.306L0.844,0Z" style="fill:white;fill-rule:nonzero;"/>
                            </g>
                        </g>
                        <g transform="matrix(0.870175,-0.153435,5.55112e-17,0.600104,26638.6,26980.7)">
                            <path d="M23021.3,4364.73C23021.3,4357.17 23017.2,4351.04 23012.2,4351.04L22965.1,4351.04C22960,4351.04 22955.9,4357.17 22955.9,4364.73L22955.9,4449.89C22955.9,4457.44 22960,4463.58 22965.1,4463.58L23012.2,4463.58C23017.2,4463.58 23021.3,4457.44 23021.3,4449.89L23021.3,4364.73Z" style="fill:white;"/>
                        </g>
                    </g>
                </g>
            </g>
        </g>
    </g>
</svg>
